src/assets/img/icon/social_media/linkedin.svg

<?xml version="1.0" encoding="UTF-8" standalone="no"?>
<!-- Generator: Adobe Illustrator 18.0.0, SVG Export Plug-In . SVG Version: 6.00 Build 0)  -->

<svg
   version="1.1"
   id="Capa_1"
   x="0px"
   y="0px"
   viewBox="0 0 112.196 112.196"
   style="enable-background:new 0 0 112.196 112.196;"
   xml:space="preserve"
   sodipodi:docname="linkedin.svg"
   inkscape:version="1.2 (dc2aedaf03, 2022-05-15)"
   xmlns:inkscape="http://www.inkscape.org/namespaces/inkscape"
   xmlns:sodipodi="http://sodipodi.sourceforge.net/DTD/sodipodi-0.dtd"
   xmlns="http://www.w3.org/2000/svg"
   xmlns:svg="http://www.w3.org/2000/svg"><defs
   id="defs43">
	
	

		
	</defs><sodipodi:namedview
   id="namedview41"
   pagecolor="#ffffff"
   bordercolor="#666666"
   borderopacity="1.0"
   inkscape:showpageshadow="2"
   inkscape:pageopacity="0.0"
   inkscape:pagecheckerboard="0"
   inkscape:deskcolor="#d1d1d1"
   showgrid="false"
   inkscape:zoom="4.2158366"
   inkscape:cx="56.3352"
   inkscape:cy="56.2166"
   inkscape:window-width="1360"
   inkscape:window-height="702"
   inkscape:window-x="0"
   inkscape:window-y="0"
   inkscape:window-maximized="1"
   inkscape:current-layer="Capa_1" />
<path
   id="circle2"
   style="fill:#48b0d3"
   d="M 56.097656 -0.001953125 A 56.098 56.098 0 0 0 0 56.097656 A 56.098 56.098 0 0 0 56.097656 112.19531 A 56.098 56.098 0 0 0 112.19531 56.097656 A 56.098 56.098 0 0 0 56.097656 -0.001953125 z M 34.65625 23.96875 C 39.244245 23.96875 42.063344 26.979551 42.152344 30.935547 C 42.152344 34.807543 39.243402 37.90625 34.566406 37.90625 L 34.480469 37.90625 C 29.982473 37.90625 27.068359 34.807543 27.068359 30.935547 C 27.068359 26.979551 30.069255 23.96875 34.65625 23.96875 z M 74.179688 42.462891 C 83.001679 42.462891 89.615234 48.226341 89.615234 60.611328 L 89.615234 83.738281 L 76.207031 83.738281 L 76.207031 62.160156 C 76.207031 56.742162 74.271011 53.042969 69.416016 53.042969 C 65.711019 53.042969 63.509108 55.533315 62.537109 57.945312 C 62.18411 58.807312 62.09375 60.005845 62.09375 61.214844 L 62.09375 83.738281 L 48.683594 83.738281 C 48.683594 83.738281 48.863594 47.191199 48.683594 43.408203 L 62.095703 43.408203 L 62.095703 49.123047 C 63.877701 46.38105 67.054695 42.462891 74.179688 42.462891 z M 62.095703 49.123047 C 62.068703 49.168047 62.029859 49.212859 62.005859 49.255859 L 62.095703 49.255859 L 62.095703 49.123047 z M 27.865234 43.408203 L 41.269531 43.408203 L 41.269531 83.738281 L 27.865234 83.738281 L 27.865234 43.408203 z " />
<g
   id="g10">
</g>
<g
   id="g12">
</g>
<g
   id="g14">
</g>
<g
   id="g16">
</g>
<g
   id="g18">
</g>
<g
   id="g20">
</g>
<g
   id="g22">
</g>
<g
   id="g24">
</g>
<g
   id="g26">
</g>
<g
   id="g28">
</g>
<g
   id="g30">
</g>
<g
   id="g32">
</g>
<g
   id="g34">
</g>
<g
   id="g36">
</g>
<g
   id="g38">
</g>
</svg>

<?xml version="1.0" encoding="iso-8859-1"?>
<!-- Generator: Adobe Illustrator 18.0.0, SVG Export Plug-In . SVG Version: 6.00 Build 0)  -->
<!DOCTYPE svg PUBLIC "-//W3C//DTD SVG 1.1//EN" "http://www.w3.org/Graphics/SVG/1.1/DTD/svg11.dtd">
<svg version="1.1" id="Capa_1" xmlns="http://www.w3.org/2000/svg" xmlns:xlink="http://www.w3.org/1999/xlink" x="0px" y="0px"
	 viewBox="0 0 112.196 112.196" style="enable-background:new 0 0 112.196 112.196;" xml:space="preserve">
<g>
	<circle style="fill:#48B0D3;" cx="56.098" cy="56.097" r="56.098"/>
	<g>
		<path d="M89.616,60.611v23.128H76.207V62.161c0-5.418-1.936-9.118-6.791-9.118
			c-3.705,0-5.906,2.491-6.878,4.903c-0.353,0.862-0.444,2.059-0.444,3.268v22.524H48.684c0,0,0.18-36.546,0-40.329h13.411v5.715
			c-0.027,0.045-0.065,0.089-0.089,0.132h0.089v-0.132c1.782-2.742,4.96-6.662,12.085-6.662
			C83.002,42.462,89.616,48.226,89.616,60.611L89.616,60.611z M34.656,23.969c-4.587,0-7.588,3.011-7.588,6.967
			c0,3.872,2.914,6.97,7.412,6.97h0.087c4.677,0,7.585-3.098,7.585-6.97C42.063,26.98,39.244,23.969,34.656,23.969L34.656,23.969z
			 M27.865,83.739H41.27V43.409H27.865V83.739z"/>
	</g>
</g>
<g>
</g>
<g>
</g>
<g>
</g>
<g>
</g>
<g>
</g>
<g>
</g>
<g>
</g>
<g>
</g>
<g>
</g>
<g>
</g>
<g>
</g>
<g>
</g>
<g>
</g>
<g>
</g>
<g>
</g>
</svg>
